X:1
%
T:Craiglug Reel
M:C|
L:1/8
R:Reel
B:Milne – Middleton’s Selection of Strathspeys, Reels &c. for the Violin (1870, p. 26)
Z:AK/Fiddler’s Companion
K:A
E|(AB)cB (AB)AF|EFEC E3A|(GA)Bc (dc)BA| GABc B3E|
(AB)cB (AB)AF|EFEC E2 (Bc)|(df)ed (cd)cB|ABAG A2||
(cd)|e2 ec (Ac)ea|e2 ec A2 Bc|df ed (Be)gb|abaf e2 cd|
efec Acea|efec A2 Bc|dfed cdcB|ABAG A2z||

